X: 12245
T: Fairest Rose, The
R: hornpipe
M: 4/4
K: Fmajor
K: Bbmaj
|:B2 dc (3Bcd fg|bggf gfdf|g2 fd c3 B|dfba g2 fd|
B2 dc B2 df|b2 gf gfdc|B2 cB E2 bg|1 fdcd Bedc:|2 fdcd B4||
|:FDDF B2 dc|B2 cB G3 F|D2 FG FDB,C|DCCB, G,3 A,|
B,2 DC B,DFB|g2 gf gabg|fd (3Bcd c3 d|B2 Bc B4:|
|:D2 dc (3Bcd cB|Bdba g3 =e|f3 B e2 ge|FBdB EBcE|
DBdc (3Bcd cB|B2 ba (3gab ag|fd (3Bcd c3 d|B2 Bc B4:|

